X:3726
T:Dan Breen's Reel
S:unknown, photocopy. no.17 on p.10
I:speed 300
M:C
K:G
|: gf | e2 dB ABAG | EAAG A2 gf | e2 dB ABAG | EGGF G2:|
|:Bd | e2 ge edBd | eA A2 eA A2 | e2 ge edBA | (3Bcd ef g2:|
